X: 3056
T: Beach, The
R: jig
M: 6/8
K: Gmajor
|:ecc fd(g|g2)d edB|ecc fd(g|g)ab agf|
ecc fd(g|g2)d edB|c2B AGE|c2B AGE:|

